assets/symbols/mulberry/flag_senegal.svg

<svg height="850.394" viewBox="0 0 850.394 850.394" width="850.394" xmlns="http://www.w3.org/2000/svg"><path d="m742.18 138.34v379.83h-190.18v-379.83z" fill="#ed1e29"/><path d="m552 516v2.17h-194v-379.83h194zm-67.59-190.97 24.359-23.74-33.659-4.9-15.061-30.5-15.049 30.5-33.67 4.9 24.36 23.74-5.75 33.53 30.109-15.83 30.11 15.83z" fill="#fbed24"/><path d="m508.77 301.29-24.36 23.74 5.75 33.53-30.11-15.83-30.11 15.83 5.75-33.53-24.36-23.74 33.67-4.9 15.05-30.5 15.06 30.5zm-150.77 212.71v4.17h-195.39v-379.83h195.39v5.66z" fill="#58b947"/><path d="m162.61 114.42c-5.96 2.8-13.07 4.43-20.69 4.43-7.3 0-14.12-1.49-19.92-4.08-10.99-4.89-18.33-13.72-18.33-23.8 0-15.4 17.13-27.88 38.25-27.88 21.13 0 38.26 12.48 38.26 27.88 0 9.84-7 18.49-17.57 23.45z" fill="#c8c8c8"/><path d="m162.61 518.17v267.21h-39.49l-1.12-670.61c5.8 2.59 12.62 4.08 19.92 4.08 7.62 0 14.73-1.63 20.69-4.43v23.92h-3.54l3.49 379.83z" fill="#c8c8c8"/><path d="m162.61 138.34v379.83h-.05l-3.49-379.83z" fill="#fff"/><g fill="none"><g stroke="#231f20"><path d="m159.07 138.34h583.11v379.83h-579.62" stroke-width="14"/><path d="m122 114.77c-10.99-4.89-18.33-13.72-18.33-23.8 0-15.4 17.13-27.88 38.25-27.88 21.13 0 38.26 12.48 38.26 27.88 0 9.84-7 18.49-17.57 23.45-5.96 2.8-13.07 4.43-20.69 4.43-7.3 0-14.12-1.49-19.92-4.08z" stroke-width="21"/><path d="m122 114v.77l1.12 670.61m39.49-672.78v672.78" stroke-width="21"/><path d="m358 144v370m194-374v376" stroke-width="14"/><path d="m460.05 342.73-30.11 15.83 5.75-33.53-24.36-23.74 33.67-4.9 15.05-30.5 15.06 30.5 33.66 4.9-24.36 23.74 5.75 33.53z" stroke-width="7"/></g><path d="m0 0h850.394v850.394h-850.394z"/></g></svg>

<svg xmlns="http://www.w3.org/2000/svg" width="850.394" height="850.394" viewBox="0 0 850.394 850.394" overflow="visible"><path fill="#ed1e29" d="M742.18 138.34v379.83H552V138.34z"/><path d="M552 516v2.17H358V138.34h194V516zm-67.59-190.97l24.359-23.74-33.659-4.9-15.061-30.5L445 296.39l-33.67 4.9 24.36 23.74-5.75 33.53 30.109-15.83 30.11 15.83-5.749-33.53z" fill="#fbed24"/><path fill="#58b947" d="M508.77 301.29l-24.36 23.74 5.75 33.53-30.11-15.83-30.11 15.83 5.75-33.53-24.36-23.74 33.67-4.9 15.05-30.5 15.06 30.5zM358 514v4.17H162.61V138.34H358V144z"/><path d="M162.61 114.42c-5.96 2.8-13.07 4.43-20.69 4.43-7.3 0-14.12-1.49-19.92-4.08-10.99-4.89-18.33-13.72-18.33-23.8 0-15.4 17.13-27.88 38.25-27.88 21.13 0 38.26 12.48 38.26 27.88 0 9.84-7 18.49-17.57 23.45z" fill="#c8c8c8"/><path d="M162.61 518.17v267.21h-39.49L122 114.77c5.8 2.59 12.62 4.08 19.92 4.08 7.62 0 14.73-1.63 20.69-4.43v23.92h-3.54l3.49 379.83h.05z" fill="#c8c8c8"/><path fill="#fff" d="M162.61 138.34v379.83h-.05l-3.49-379.83z"/><g fill="none" stroke="#231f20"><path stroke-width="14" d="M159.07 138.34H742.18v379.83H162.56"/><path d="M122 114.77c-10.99-4.89-18.33-13.72-18.33-23.8 0-15.4 17.13-27.88 38.25-27.88 21.13 0 38.26 12.48 38.26 27.88 0 9.84-7 18.49-17.57 23.45-5.96 2.8-13.07 4.43-20.69 4.43-7.3 0-14.12-1.49-19.92-4.08z" stroke-width="21"/><path stroke-width="21" d="M122 114v.77l1.12 670.61M162.61 112.6v672.78"/><path stroke-width="14" d="M358 144v370M552 140v376"/><path stroke-width="7" d="M460.05 342.73l-30.11 15.83 5.75-33.53-24.36-23.74 33.67-4.9 15.05-30.5 15.06 30.5 33.66 4.9-24.36 23.74 5.75 33.53z"/></g><path fill="none" d="M0 0h850.394v850.394H0z"/></svg>
